Origami/48x48/apps/reddit.svg

<svg width="48" height="48" version="1.1" viewBox="0 0 12.7 12.7" xmlns="http://www.w3.org/2000/svg">
 <g transform="translate(0,-284.29999)">
  <circle cx="6.35" cy="290.915" r="5.292" style="opacity:.2"/>
  <circle cx="6.35" cy="290.65" r="5.292" style="fill:#ff6a33"/>
  <path transform="matrix(.26458333 0 0 .26458333 0 284.29999)" d="M 24 4 A 19.999999 19.999999 0 0 0 4 24 A 19.999999 19.999999 0 0 0 4.0214844 24.582031 A 19.999999 19.999999 0 0 1 24 5 A 19.999999 19.999999 0 0 1 43.978516 24.417969 A 19.999999 19.999999 0 0 0 44 24 A 19.999999 19.999999 0 0 0 24 4 z" style="fill:#ffffff;opacity:.2"/>
  <path d="m6.599597 287.73906a0.26460981 0.26460981 0 0 0 -0.2480469 0.23254l-0.2356445 1.89343a2.9104166 2.1166665 0 0 0 -1.7735351 0.57877 0.79374999 0.79374999 0 0 0 -0.6382039 -0.32298 0.79374999 0.79374999 0 0 0 -0.79375 0.79375 0.79374999 0.79374999 0 0 0 0.5617229 0.7581 2.9104166 2.1166665 0 0 0 -0.032556 0.30024 2.9104166 2.1166665 0 0 0 2.9104166 2.11666 2.9104166 2.1166665 0 0 0 2.9104167 -2.11666 2.9104166 2.1166665 0 0 0 -0.032556 -0.29973 0.79374999 0.79374999 0 0 0 0.5617228 -0.75861 0.79374999 0.79374999 0 0 0 -0.79375 -0.79375 0.79374999 0.79374999 0 0 0 -0.6371703 0.32195 2.9104166 2.1166665 0 0 0 -1.71049 -0.57258l0.1953368-1.56683 1.1322307 0.16175a0.52916663 0.52916663 0 0 0 0.4909262 0.3328 0.52916663 0.52916663 0 0 0 0.5291666 -0.52917 0.52916663 0.52916663 0 0 0 -0.5291666 -0.52917 0.52916663 0.52916663 0 0 0 -0.4154784 0.20258l-1.3988816-0.19896a0.26460981 0.26460981 0 0 0 -0.05271 -4e-3zm-1.3079304 3.17551a0.52916663 0.52916663 0 0 1 0.5291667 0.52917 0.52916663 0.52916663 0 0 1 -0.5291667 0.52917 0.52916663 0.52916663 0 0 1 -0.5291667 -0.52917 0.52916663 0.52916663 0 0 1 0.5291667 -0.52917zm2.1166666 0a0.52916663 0.52916663 0 0 1 0.5291667 0.52917 0.52916663 0.52916663 0 0 1 -0.5291667 0.52917 0.52916663 0.52916663 0 0 1 -0.5291666 -0.52917 0.52916663 0.52916663 0 0 1 0.5291666 -0.52917zm0.2588991 1.57975a0.2655331 0.2655331 0 0 1 0.242879 0.39119c3e-7 0-0.1119381 0.20295-0.3555339 0.36535-0.2435957 0.1624-0.6318302 0.30851-1.2050942 0.30851-0.5732642 0-0.9614985-0.14611-1.2050945-0.30851-0.2435958-0.1624-0.3534667-0.36535-0.3534667-0.36535a0.26460981 0.26460981 0 0 1 0.2129068 -0.38654 0.26460981 0.26460981 0 0 1 0.026872 -1e-3 0.26460981 0.26460981 0 0 1 0.2330606 0.14934s0.020354 0.0621 0.1736328 0.16434c0.1532792 0.10218 0.4270197 0.22065 0.9120891 0.22065 0.4850691 0 0.7588107-0.11847 0.9120888-0.22065 0.1532793-0.10217 0.1741498-0.16434 0.1741498-0.16434a0.2655331 0.2655331 0 0 1 0.2315105 -0.15296z" style="opacity:.2"/>
  <path transform="matrix(.26458333 0 0 .26458333 0 284.29999)" d="m24.943359 11.998047a1.0001001 1.0001001 0 0 0 -0.9375 0.878906l-0.890625 7.15625a11 7.9999993 0 0 0 -6.703125 2.1875 3 3 0 0 0 -2.412109 -1.220703 3 3 0 0 0 -3 3 3 3 0 0 0 2.123047 2.865234 11 7.9999993 0 0 0 -0.123047 1.134766 11 7.9999993 0 0 0 11 8 11 7.9999993 0 0 0 11 -8 11 7.9999993 0 0 0 -0.123047 -1.132812 3 3 0 0 0 2.123047 -2.867188 3 3 0 0 0 -3 -3 3 3 0 0 0 -2.408203 1.216797 11 7.9999993 0 0 0 -6.464844 -2.164063l0.738281-5.921875 4.279297 0.611329a1.9999999 1.9999999 0 0 0 1.855469 1.257812 1.9999999 1.9999999 0 0 0 2 -2 1.9999999 1.9999999 0 0 0 -2 -2 1.9999999 1.9999999 0 0 0 -1.570312 0.765625l-5.28711-0.751953a1.0001001 1.0001001 0 0 0 -0.199219 -0.015625zm-4.943359 12.001953a1.9999999 1.9999999 0 0 1 2 2 1.9999999 1.9999999 0 0 1 -2 2 1.9999999 1.9999999 0 0 1 -2 -2 1.9999999 1.9999999 0 0 1 2 -2zm8 0a1.9999999 1.9999999 0 0 1 2 2 1.9999999 1.9999999 0 0 1 -2 2 1.9999999 1.9999999 0 0 1 -2 -2 1.9999999 1.9999999 0 0 1 2 -2zm0.978516 5.970703a1.0035897 1.0035897 0 0 1 0.917968 1.478516c1e-6 0-0.423073 0.767064-1.34375 1.380859s-2.38802 1.166016-4.554687 1.166016c-2.166668 0-3.63401-0.552221-4.554688-1.166016-0.920677-0.613795-1.335937-1.380859-1.335937-1.380859a1.0001001 1.0001001 0 0 1 0.804687 -1.460938 1.0001001 1.0001001 0 0 1 0.101563 -0.003906 1.0001001 1.0001001 0 0 1 0.880859 0.564453s0.076927 0.234864 0.65625 0.621094c0.579323 0.386192 1.613933 0.833984 3.447266 0.833984 1.833332 0 2.867946-0.447792 3.447265-0.833984 0.579323-0.386154 0.658204-0.621094 0.658204-0.621094a1.0035897 1.0035897 0 0 1 0.875 -0.578125z" style="fill:#ffffff"/>
 </g>
</svg>

<svg xmlns="http://www.w3.org/2000/svg" width="48" height="48" version="1.1" viewBox="0 0 12.7 12.7">
 <g transform="translate(0,-284.29999)">
  <circle style="opacity:0.2" cx="6.35" cy="290.915" r="5.292"/>
  <circle style="fill:#ff6a33" cx="6.35" cy="290.65" r="5.292"/>
  <path style="opacity:0.2;fill:#ffffff" d="M 24 4 A 19.999999 19.999999 0 0 0 4 24 A 19.999999 19.999999 0 0 0 4.0214844 24.582031 A 19.999999 19.999999 0 0 1 24 5 A 19.999999 19.999999 0 0 1 43.978516 24.417969 A 19.999999 19.999999 0 0 0 44 24 A 19.999999 19.999999 0 0 0 24 4 z" transform="matrix(0.26458333,0,0,0.26458333,0,284.29999)"/>
  <path style="opacity:0.2" d="m 6.599597,287.73906 a 0.26460981,0.26460981 0 0 0 -0.2480469,0.23254 l -0.2356445,1.89343 a 2.9104166,2.1166665 0 0 0 -1.7735351,0.57877 0.79374999,0.79374999 0 0 0 -0.6382039,-0.32298 0.79374999,0.79374999 0 0 0 -0.79375,0.79375 0.79374999,0.79374999 0 0 0 0.5617229,0.7581 2.9104166,2.1166665 0 0 0 -0.032556,0.30024 2.9104166,2.1166665 0 0 0 2.9104166,2.11666 2.9104166,2.1166665 0 0 0 2.9104167,-2.11666 2.9104166,2.1166665 0 0 0 -0.032556,-0.29973 0.79374999,0.79374999 0 0 0 0.5617228,-0.75861 0.79374999,0.79374999 0 0 0 -0.79375,-0.79375 0.79374999,0.79374999 0 0 0 -0.6371703,0.32195 2.9104166,2.1166665 0 0 0 -1.71049,-0.57258 l 0.1953368,-1.56683 1.1322307,0.16175 a 0.52916663,0.52916663 0 0 0 0.4909262,0.3328 0.52916663,0.52916663 0 0 0 0.5291666,-0.52917 0.52916663,0.52916663 0 0 0 -0.5291666,-0.52917 0.52916663,0.52916663 0 0 0 -0.4154784,0.20258 L 6.652307,287.74319 a 0.26460981,0.26460981 0 0 0 -0.05271,-0.004 z m -1.3079304,3.17551 a 0.52916663,0.52916663 0 0 1 0.5291667,0.52917 0.52916663,0.52916663 0 0 1 -0.5291667,0.52917 0.52916663,0.52916663 0 0 1 -0.5291667,-0.52917 0.52916663,0.52916663 0 0 1 0.5291667,-0.52917 z m 2.1166666,0 a 0.52916663,0.52916663 0 0 1 0.5291667,0.52917 0.52916663,0.52916663 0 0 1 -0.5291667,0.52917 0.52916663,0.52916663 0 0 1 -0.5291666,-0.52917 0.52916663,0.52916663 0 0 1 0.5291666,-0.52917 z m 0.2588991,1.57975 a 0.2655331,0.2655331 0 0 1 0.242879,0.39119 c 3e-7,0 -0.1119381,0.20295 -0.3555339,0.36535 -0.2435957,0.1624 -0.6318302,0.30851 -1.2050942,0.30851 -0.5732642,0 -0.9614985,-0.14611 -1.2050945,-0.30851 -0.2435958,-0.1624 -0.3534667,-0.36535 -0.3534667,-0.36535 a 0.26460981,0.26460981 0 0 1 0.2129068,-0.38654 0.26460981,0.26460981 0 0 1 0.026872,-10e-4 0.26460981,0.26460981 0 0 1 0.2330606,0.14934 c 0,0 0.020354,0.0621 0.1736328,0.16434 0.1532792,0.10218 0.4270197,0.22065 0.9120891,0.22065 0.4850691,0 0.7588107,-0.11847 0.9120888,-0.22065 0.1532793,-0.10217 0.1741498,-0.16434 0.1741498,-0.16434 a 0.2655331,0.2655331 0 0 1 0.2315105,-0.15296 z"/>
  <path style="fill:#ffffff" d="M 24.943359 11.998047 A 1.0001001 1.0001001 0 0 0 24.005859 12.876953 L 23.115234 20.033203 A 11 7.9999993 0 0 0 16.412109 22.220703 A 3 3 0 0 0 14 21 A 3 3 0 0 0 11 24 A 3 3 0 0 0 13.123047 26.865234 A 11 7.9999993 0 0 0 13 28 A 11 7.9999993 0 0 0 24 36 A 11 7.9999993 0 0 0 35 28 A 11 7.9999993 0 0 0 34.876953 26.867188 A 3 3 0 0 0 37 24 A 3 3 0 0 0 34 21 A 3 3 0 0 0 31.591797 22.216797 A 11 7.9999993 0 0 0 25.126953 20.052734 L 25.865234 14.130859 L 30.144531 14.742188 A 1.9999999 1.9999999 0 0 0 32 16 A 1.9999999 1.9999999 0 0 0 34 14 A 1.9999999 1.9999999 0 0 0 32 12 A 1.9999999 1.9999999 0 0 0 30.429688 12.765625 L 25.142578 12.013672 A 1.0001001 1.0001001 0 0 0 24.943359 11.998047 z M 20 24 A 1.9999999 1.9999999 0 0 1 22 26 A 1.9999999 1.9999999 0 0 1 20 28 A 1.9999999 1.9999999 0 0 1 18 26 A 1.9999999 1.9999999 0 0 1 20 24 z M 28 24 A 1.9999999 1.9999999 0 0 1 30 26 A 1.9999999 1.9999999 0 0 1 28 28 A 1.9999999 1.9999999 0 0 1 26 26 A 1.9999999 1.9999999 0 0 1 28 24 z M 28.978516 29.970703 A 1.0035897 1.0035897 0 0 1 29.896484 31.449219 C 29.896485 31.449219 29.473411 32.216283 28.552734 32.830078 C 27.632057 33.443873 26.164714 33.996094 23.998047 33.996094 C 21.831379 33.996094 20.364037 33.443873 19.443359 32.830078 C 18.522682 32.216283 18.107422 31.449219 18.107422 31.449219 A 1.0001001 1.0001001 0 0 1 18.912109 29.988281 A 1.0001001 1.0001001 0 0 1 19.013672 29.984375 A 1.0001001 1.0001001 0 0 1 19.894531 30.548828 C 19.894531 30.548828 19.971458 30.783692 20.550781 31.169922 C 21.130104 31.556114 22.164714 32.003906 23.998047 32.003906 C 25.831379 32.003906 26.865993 31.556114 27.445312 31.169922 C 28.024635 30.783768 28.103516 30.548828 28.103516 30.548828 A 1.0035897 1.0035897 0 0 1 28.978516 29.970703 z" transform="matrix(0.26458333,0,0,0.26458333,0,284.29999)"/>
 </g>
</svg>
